icons/communication/comment-smile-24.svg

<svg width="24" height="24" viewBox="0 0 24 24" fill="none" xmlns="http://www.w3.org/2000/svg">
<path d="M10 8C10 8.55229 9.55229 9 9 9C8.44771 9 8 8.55229 8 8C8 7.44772 8.44771 7 9 7C9.55229 7 10 7.44772 10 8Z" fill="black"/>
<path d="M15 9C15.5523 9 16 8.55229 16 8C16 7.44772 15.5523 7 15 7C14.4477 7 14 7.44772 14 8C14 8.55229 14.4477 9 15 9Z" fill="black"/>
<path fill-rule="evenodd" clip-rule="evenodd" d="M2.75 2C1.7835 2 1 2.7835 1 3.75V16.25C1 17.2165 1.7835 18 2.75 18H5V20.7183C5 21.8076 6.29633 22.3757 7.09724 21.6374L10.9712 18.0662C11.0173 18.0236 11.0778 18 11.1406 18H21.25C22.2165 18 23 17.2165 23 16.25V3.75C23 2.7835 22.2165 2 21.25 2H2.75ZM2.5 3.75C2.5 3.61193 2.61193 3.5 2.75 3.5H21.25C21.3881 3.5 21.5 3.61193 21.5 3.75V16.25C21.5 16.3881 21.3881 16.5 21.25 16.5H11.1406C10.7011 16.5 10.2776 16.6654 9.95446 16.9633L6.5 20.1478V17.5C6.5 16.9477 6.05228 16.5 5.5 16.5H2.75C2.61193 16.5 2.5 16.3881 2.5 16.25V3.75Z" fill="black"/>
<path d="M9.06186 11.2532C8.7887 10.9442 8.31687 10.9137 8.00612 11.1856C7.69439 11.4583 7.66367 11.9331 7.93643 12.2449L7.93741 12.246L7.93976 12.2486L7.94595 12.2556L7.96432 12.2757C7.97921 12.2918 7.9994 12.3132 8.02479 12.3392C8.07552 12.391 8.14729 12.4611 8.23926 12.5434C8.42276 12.7075 8.68946 12.9224 9.03293 13.1365C9.71886 13.5641 10.7301 14 12 14C13.2699 14 14.2811 13.5641 14.9671 13.1365C15.3105 12.9224 15.5772 12.7075 15.7607 12.5434C15.8527 12.4611 16.054 12.2556 16.054 12.2556L16.0644 12.2439C16.3372 11.9322 16.3056 11.4583 15.9939 11.1856C15.6831 10.9137 15.2113 10.9442 14.9381 11.2532L14.9338 11.258C14.9284 11.2638 14.9182 11.2746 14.9034 11.2897C14.8739 11.3199 14.826 11.367 14.7607 11.4254C14.6298 11.5425 14.4317 11.7026 14.1736 11.8635C13.6564 12.1859 12.9176 12.5 12 12.5C11.0824 12.5 10.3436 12.1859 9.82644 11.8635C9.56835 11.7026 9.37021 11.5425 9.23925 11.4254C9.174 11.367 9.12614 11.3199 9.09655 11.2897C9.08178 11.2746 9.07164 11.2638 9.06623 11.258L9.06186 11.2532Z" fill="black"/>
</svg>

<svg xmlns="http://www.w3.org/2000/svg" width="24" height="24"><path d="M10 8a1 1 0 11-2 0 1 1 0 012 0zm5 1a1 1 0 100-2 1 1 0 000 2z"/><path fill-rule="evenodd" d="M2.75 2A1.75 1.75 0 001 3.75v12.5c0 .966.784 1.75 1.75 1.75H5v2.718c0 1.09 1.296 1.658 2.097.92l3.874-3.572a.25.25 0 01.17-.066H21.25A1.75 1.75 0 0023 16.25V3.75A1.75 1.75 0 0021.25 2H2.75zM2.5 3.75a.25.25 0 01.25-.25h18.5a.25.25 0 01.25.25v12.5a.25.25 0 01-.25.25H11.14c-.439 0-.862.165-1.186.463L6.5 20.148V17.5a1 1 0 00-1-1H2.75a.25.25 0 01-.25-.25V3.75z"/><path d="M9.062 11.253a.75.75 0 00-1.126.992l.001.001.003.003.006.007.018.02.06.063a5.8 5.8 0 001.008.797A5.594 5.594 0 0012 14a5.59 5.59 0 002.967-.864c.343-.214.61-.428.794-.593.092-.082.293-.287.293-.287l.01-.012a.75.75 0 00-1.126-.99l-.004.004a2.962 2.962 0 01-.173.167 4.3 4.3 0 01-.587.439A4.095 4.095 0 0112 12.5a4.095 4.095 0 01-2.174-.636 4.305 4.305 0 01-.73-.574 1.812 1.812 0 01-.03-.032l-.004-.005z"/></svg>
